public/item-monetization.svg

<svg width="26" height="26" viewBox="0 0 26 26" fill="none" xmlns="http://www.w3.org/2000/svg">
<path fill-rule="evenodd" clip-rule="evenodd" d="M13.375 0.5C6.475 0.5 0.875 6.1 0.875 13C0.875 19.9 6.475 25.5 13.375 25.5C20.275 25.5 25.875 19.9 25.875 13C25.875 6.1 20.275 0.5 13.375 0.5ZM13.375 23C7.8625 23 3.375 18.5125 3.375 13C3.375 7.4875 7.8625 3 13.375 3C18.8875 3 23.375 7.4875 23.375 13C23.375 18.5125 18.8875 23 13.375 23ZM10.8375 9.8375C10.8375 10.75 11.55 11.3625 13.7625 11.925C15.9625 12.5 18.325 13.45 18.3375 16.2C18.325 18.2125 16.825 19.3 14.925 19.6625V21.75H12V19.625C10.125 19.2375 8.55001 18.0375 8.42501 15.9125H10.575C10.6875 17.0625 11.475 17.9625 13.475 17.9625C15.6125 17.9625 16.1 16.8875 16.1 16.225C16.1 15.325 15.6125 14.4625 13.175 13.8875C10.4625 13.2375 8.60001 12.1125 8.60001 9.875C8.60001 7.9875 10.1125 6.7625 12 6.3625V4.25H14.9125V6.3875C16.9375 6.8875 17.9625 8.425 18.025 10.1H15.8875C15.8375 8.875 15.1875 8.05 13.4625 8.05C11.825 8.05 10.8375 8.7875 10.8375 9.8375Z" fill="black"/>
</svg>

<svg width="26" height="26" fill="none" xmlns="http://www.w3.org/2000/svg"><path fill-rule="evenodd" clip-rule="evenodd" d="M13.375.5C6.475.5.875 6.1.875 13s5.6 12.5 12.5 12.5 12.5-5.6 12.5-12.5S20.275.5 13.375.5zm0 22.5c-5.513 0-10-4.488-10-10 0-5.513 4.487-10 10-10 5.512 0 10 4.487 10 10 0 5.512-4.488 10-10 10zM10.838 9.838c0 .912.712 1.525 2.925 2.087 2.2.575 4.562 1.525 4.574 4.275-.012 2.012-1.512 3.1-3.412 3.463v2.087H12v-2.125c-1.875-.387-3.45-1.587-3.575-3.713h2.15c.113 1.15.9 2.05 2.9 2.05 2.138 0 2.625-1.075 2.625-1.737 0-.9-.488-1.763-2.925-2.338-2.713-.65-4.575-1.774-4.575-4.012 0-1.888 1.513-3.112 3.4-3.513V4.25h2.912v2.138c2.025.5 3.05 2.037 3.113 3.712h-2.137c-.05-1.225-.7-2.05-2.425-2.05-1.638 0-2.625.737-2.625 1.787z" fill="#000"/></svg>
